badges/youtube-light.svg

<svg width="118" height="40" viewBox="0 0 118 40" fill="none" xmlns="http://www.w3.org/2000/svg">
<rect x="0.5" y="0.5" width="117" height="39" rx="4.5" fill="white"/>
<path d="M10.525 29.475C8.685 27.635 8 24.635 8 20C8 15.365 8.685 12.365 10.525 10.525C12.365 8.685 15.365 8 20 8C24.635 8 27.635 8.685 29.475 10.525C31.315 12.365 32 15.365 32 20C32 24.635 31.315 27.635 29.475 29.475C27.635 31.315 24.635 32 20 32C15.365 32 12.365 31.315 10.525 29.475Z" fill="white"/>
<path d="M28.4438 15.7303C28.3443 15.3552 28.1479 15.0129 27.8744 14.7376C27.6009 14.4623 27.2599 14.2637 26.8855 14.1616C25.5115 13.7908 20 13.7908 20 13.7908C20 13.7908 14.4885 13.7908 13.1138 14.1616C12.7395 14.2638 12.3987 14.4625 12.1254 14.7378C11.852 15.0131 11.6557 15.3553 11.5562 15.7303C11.1875 17.1138 11.1875 19.9999 11.1875 19.9999C11.1875 19.9999 11.1875 22.886 11.5562 24.2696C11.6557 24.6447 11.8521 24.987 12.1256 25.2623C12.3991 25.5376 12.7401 25.7362 13.1145 25.8382C14.4885 26.2091 20 26.2091 20 26.2091C20 26.2091 25.5115 26.2091 26.8862 25.8382C27.2607 25.7362 27.6017 25.5377 27.8752 25.2624C28.1487 24.987 28.3451 24.6447 28.4446 24.2696C28.8125 22.886 28.8125 19.9999 28.8125 19.9999C28.8125 19.9999 28.8125 17.1138 28.4438 15.7303ZM18.1971 22.6202V17.3797L22.8038 19.9999L18.1971 22.6202Z" fill="#FF0100"/>
<path d="M40.8714 14.5L39.1811 8.31818H39.9418L41.2337 13.353H41.294L42.6101 8.31818H43.4553L44.7713 13.353H44.8317L46.1236 8.31818H46.8842L45.1939 14.5H44.4212L43.0568 9.57386H43.0085L41.6442 14.5H40.8714ZM48.6531 14.6087C48.3593 14.6087 48.0926 14.5533 47.8532 14.4426C47.6137 14.33 47.4235 14.168 47.2827 13.9567C47.1418 13.7434 47.0714 13.4858 47.0714 13.1839C47.0714 12.9183 47.1237 12.703 47.2283 12.538C47.333 12.371 47.4728 12.2402 47.6479 12.1456C47.823 12.051 48.0162 11.9806 48.2275 11.9343C48.4408 11.886 48.6551 11.8478 48.8704 11.8196C49.1521 11.7834 49.3805 11.7562 49.5556 11.7381C49.7327 11.718 49.8614 11.6848 49.9419 11.6385C50.0244 11.5922 50.0657 11.5117 50.0657 11.397V11.3729C50.0657 11.075 49.9842 10.8436 49.8212 10.6786C49.6602 10.5136 49.4157 10.4311 49.0877 10.4311C48.7476 10.4311 48.481 10.5056 48.2878 10.6545C48.0946 10.8034 47.9588 10.9624 47.8803 11.1314L47.2042 10.8899C47.3249 10.6082 47.4859 10.3888 47.6871 10.2319C47.8904 10.0729 48.1117 9.96224 48.3512 9.89986C48.5927 9.83546 48.8301 9.80327 49.0636 9.80327C49.2125 9.80327 49.3835 9.82138 49.5767 9.8576C49.7719 9.89181 49.96 9.96325 50.1412 10.0719C50.3243 10.1806 50.4762 10.3446 50.5969 10.5639C50.7177 10.7833 50.7781 11.0771 50.7781 11.4453V14.5H50.0657V13.8722H50.0295C49.9812 13.9728 49.9007 14.0804 49.788 14.1951C49.6753 14.3098 49.5254 14.4074 49.3382 14.4879C49.1511 14.5684 48.9227 14.6087 48.6531 14.6087ZM48.7617 13.9688C49.0434 13.9688 49.2809 13.9134 49.4741 13.8027C49.6693 13.6921 49.8162 13.5492 49.9148 13.3741C50.0154 13.199 50.0657 13.0149 50.0657 12.8217V12.1697C50.0355 12.206 49.9691 12.2392 49.8665 12.2694C49.7659 12.2975 49.6491 12.3227 49.5163 12.3448C49.3855 12.3649 49.2578 12.383 49.133 12.3991C49.0102 12.4132 48.9106 12.4253 48.8342 12.4354C48.649 12.4595 48.476 12.4988 48.315 12.5531C48.156 12.6054 48.0272 12.6849 47.9286 12.7915C47.832 12.8962 47.7837 13.0391 47.7837 13.2202C47.7837 13.4677 47.8753 13.6548 48.0584 13.7816C48.2435 13.9064 48.478 13.9688 48.7617 13.9688ZM54.0946 9.86364V10.4673H51.6919V9.86364H54.0946ZM52.3922 8.75284H53.1045V13.1719C53.1045 13.3731 53.1337 13.524 53.1921 13.6246C53.2524 13.7232 53.3289 13.7897 53.4215 13.8239C53.5161 13.8561 53.6157 13.8722 53.7203 13.8722C53.7988 13.8722 53.8632 13.8681 53.9135 13.8601C53.9638 13.85 54.004 13.842 54.0342 13.8359L54.1791 14.4759C54.1308 14.494 54.0634 14.5121 53.9769 14.5302C53.8903 14.5503 53.7807 14.5604 53.6479 14.5604C53.4466 14.5604 53.2494 14.5171 53.0562 14.4306C52.8651 14.344 52.7061 14.2122 52.5793 14.0352C52.4546 13.8581 52.3922 13.6347 52.3922 13.3651V8.75284ZM56.9999 14.5966C56.5652 14.5966 56.1909 14.494 55.877 14.2887C55.5631 14.0835 55.3216 13.8007 55.1526 13.4405C54.9835 13.0803 54.899 12.6688 54.899 12.206C54.899 11.7351 54.9855 11.3195 55.1586 10.9593C55.3337 10.5971 55.5772 10.3144 55.8891 10.1112C56.203 9.90589 56.5692 9.80327 56.9878 9.80327C57.3138 9.80327 57.6076 9.86364 57.8692 9.98438C58.1308 10.1051 58.3451 10.2741 58.5121 10.4915C58.6791 10.7088 58.7828 10.9624 58.823 11.2521H58.1107C58.0563 11.0408 57.9356 10.8537 57.7484 10.6907C57.5633 10.5257 57.3138 10.4432 56.9999 10.4432C56.7222 10.4432 56.4787 10.5156 56.2694 10.6605C56.0621 10.8034 55.9001 11.0056 55.7834 11.2672C55.6687 11.5268 55.6114 11.8317 55.6114 12.1818C55.6114 12.54 55.6677 12.8519 55.7804 13.1175C55.8951 13.3832 56.0561 13.5894 56.2634 13.7363C56.4726 13.8832 56.7181 13.9567 56.9999 13.9567C57.185 13.9567 57.353 13.9245 57.504 13.8601C57.6549 13.7957 57.7827 13.7031 57.8873 13.5824C57.9919 13.4616 58.0664 13.3168 58.1107 13.1477H58.823C58.7828 13.4214 58.6832 13.6679 58.5242 13.8873C58.3672 14.1046 58.159 14.2776 57.8994 14.4064C57.6418 14.5332 57.342 14.5966 56.9999 14.5966ZM60.5767 11.7109V14.5H59.8644V8.31818H60.5767V10.5881H60.6371C60.7458 10.3486 60.9088 10.1584 61.1261 10.0176C61.3455 9.8747 61.6372 9.80327 62.0015 9.80327C62.3174 9.80327 62.5941 9.86665 62.8315 9.99343C63.069 10.1182 63.2531 10.3104 63.3839 10.57C63.5167 10.8275 63.5831 11.1555 63.5831 11.554V14.5H62.8708V11.6023C62.8708 11.234 62.7752 10.9493 62.584 10.748C62.3949 10.5448 62.1323 10.4432 61.7962 10.4432C61.5628 10.4432 61.3535 10.4925 61.1684 10.5911C60.9852 10.6897 60.8404 10.8336 60.7337 11.0227C60.6291 11.2119 60.5767 11.4413 60.5767 11.7109ZM69.1605 14.5966C68.742 14.5966 68.3747 14.497 68.0588 14.2978C67.7449 14.0985 67.4993 13.8198 67.3223 13.4616C67.1472 13.1035 67.0597 12.6849 67.0597 12.206C67.0597 11.723 67.1472 11.3014 67.3223 10.9412C67.4993 10.581 67.7449 10.3013 68.0588 10.1021C68.3747 9.90288 68.742 9.80327 69.1605 9.80327C69.5791 9.80327 69.9453 9.90288 70.2592 10.1021C70.5752 10.3013 70.8207 10.581 70.9957 10.9412C71.1728 11.3014 71.2614 11.723 71.2614 12.206C71.2614 12.6849 71.1728 13.1035 70.9957 13.4616C70.8207 13.8198 70.5752 14.0985 70.2592 14.2978C69.9453 14.497 69.5791 14.5966 69.1605 14.5966ZM69.1605 13.9567C69.4785 13.9567 69.7401 13.8752 69.9453 13.7122C70.1506 13.5492 70.3025 13.3349 70.4011 13.0692C70.4997 12.8036 70.549 12.5159 70.549 12.206C70.549 11.8961 70.4997 11.6073 70.4011 11.3397C70.3025 11.072 70.1506 10.8557 69.9453 10.6907C69.7401 10.5257 69.4785 10.4432 69.1605 10.4432C68.8426 10.4432 68.581 10.5257 68.3757 10.6907C68.1705 10.8557 68.0185 11.072 67.9199 11.3397C67.8213 11.6073 67.772 11.8961 67.772 12.206C67.772 12.5159 67.8213 12.8036 67.9199 13.0692C68.0185 13.3349 68.1705 13.5492 68.3757 13.7122C68.581 13.8752 68.8426 13.9567 69.1605 13.9567ZM73.0611 11.7109V14.5H72.3488V9.86364H73.037V10.5881H73.0973C73.206 10.3526 73.371 10.1635 73.5924 10.0206C73.8137 9.87571 74.0995 9.80327 74.4496 9.80327C74.7635 9.80327 75.0382 9.86766 75.2737 9.99645C75.5091 10.1232 75.6922 10.3164 75.823 10.576C75.9538 10.8336 76.0192 11.1596 76.0192 11.554V14.5H75.3069V11.6023C75.3069 11.238 75.2123 10.9543 75.0231 10.7511C74.834 10.5458 74.5744 10.4432 74.2444 10.4432C74.017 10.4432 73.8137 10.4925 73.6346 10.5911C73.4575 10.6897 73.3177 10.8336 73.2151 11.0227C73.1124 11.2119 73.0611 11.4413 73.0611 11.7109Z" fill="black"/>
<path d="M38.4474 17.7727H40.2124L43.7422 23.7138H43.8913L47.4212 17.7727H49.1861L44.5874 25.255V30.5H43.0462V25.255L38.4474 17.7727ZM53.2583 30.6989C52.3965 30.6989 51.6404 30.4938 50.99 30.0836C50.3437 29.6735 49.8382 29.0997 49.4736 28.3622C49.1132 27.6248 48.933 26.763 48.933 25.777C48.933 24.7827 49.1132 23.9147 49.4736 23.1731C49.8382 22.4315 50.3437 21.8556 50.99 21.4455C51.6404 21.0353 52.3965 20.8303 53.2583 20.8303C54.12 20.8303 54.874 21.0353 55.5203 21.4455C56.1708 21.8556 56.6762 22.4315 57.0367 23.1731C57.4012 23.9147 57.5835 24.7827 57.5835 25.777C57.5835 26.763 57.4012 27.6248 57.0367 28.3622C56.6762 29.0997 56.1708 29.6735 55.5203 30.0836C54.874 30.4938 54.12 30.6989 53.2583 30.6989ZM53.2583 29.3814C53.9128 29.3814 54.4514 29.2136 54.874 28.878C55.2966 28.5424 55.6094 28.1012 55.8124 27.5543C56.0154 27.0075 56.1169 26.415 56.1169 25.777C56.1169 25.139 56.0154 24.5444 55.8124 23.9934C55.6094 23.4424 55.2966 22.997 54.874 22.6573C54.4514 22.3176 53.9128 22.1477 53.2583 22.1477C52.6037 22.1477 52.0651 22.3176 51.6425 22.6573C51.2199 22.997 50.9071 23.4424 50.7041 23.9934C50.5011 24.5444 50.3996 25.139 50.3996 25.777C50.3996 26.415 50.5011 27.0075 50.7041 27.5543C50.9071 28.1012 51.2199 28.5424 51.6425 28.878C52.0651 29.2136 52.6037 29.3814 53.2583 29.3814ZM65.5879 26.5973V20.9545H67.0546V30.5H65.5879V28.8842H65.4885C65.2648 29.369 64.9168 29.7812 64.4445 30.1209C63.9722 30.4565 63.3756 30.6243 62.6547 30.6243C62.0581 30.6243 61.5278 30.4938 61.0638 30.2328C60.5998 29.9676 60.2352 29.5699 59.97 29.0396C59.7049 28.5051 59.5723 27.8319 59.5723 27.0199V20.9545H61.0389V26.9205C61.0389 27.6165 61.2337 28.1716 61.6231 28.5859C62.0167 29.0002 62.518 29.2074 63.127 29.2074C63.4916 29.2074 63.8624 29.1142 64.2394 28.9277C64.6205 28.7413 64.9396 28.4554 65.1964 28.0701C65.4574 27.6848 65.5879 27.1939 65.5879 26.5973ZM68.1049 19.1399V17.7727H77.6504V19.1399H73.6483V30.5H72.1071V19.1399H68.1049ZM84.2969 26.5973V20.9545H85.7635V30.5H84.2969V28.8842H84.1975C83.9738 29.369 83.6258 29.7812 83.1535 30.1209C82.6812 30.4565 82.0846 30.6243 81.3637 30.6243C80.7671 30.6243 80.2368 30.4938 79.7728 30.2328C79.3088 29.9676 78.9442 29.5699 78.679 29.0396C78.4139 28.5051 78.2813 27.8319 78.2813 27.0199V20.9545H79.7479V26.9205C79.7479 27.6165 79.9426 28.1716 80.3321 28.5859C80.7257 29.0002 81.227 29.2074 81.836 29.2074C82.2006 29.2074 82.5714 29.1142 82.9484 28.9277C83.3295 28.7413 83.6485 28.4554 83.9054 28.0701C84.1664 27.6848 84.2969 27.1939 84.2969 26.5973ZM88.3986 30.5V17.7727H89.8652V22.4709H89.9895C90.0972 22.3052 90.2464 22.0939 90.437 21.837C90.6317 21.576 90.9093 21.344 91.2697 21.141C91.6343 20.9338 92.1273 20.8303 92.7488 20.8303C93.5525 20.8303 94.2609 21.0312 94.8741 21.4331C95.4873 21.8349 95.9658 22.4046 96.3097 23.142C96.6535 23.8795 96.8255 24.7495 96.8255 25.7521C96.8255 26.763 96.6535 27.6393 96.3097 28.3809C95.9658 29.1183 95.4893 29.69 94.8803 30.0961C94.2713 30.4979 93.5691 30.6989 92.7736 30.6989C92.1605 30.6989 91.6695 30.5974 91.3008 30.3944C90.9321 30.1872 90.6483 29.9531 90.4494 29.6921C90.2505 29.427 90.0972 29.2074 89.9895 29.0334H89.8155V30.5H88.3986ZM89.8404 25.7273C89.8404 26.4482 89.946 27.0841 90.1573 27.6351C90.3686 28.182 90.6773 28.6108 91.0833 28.9215C91.4893 29.2281 91.9864 29.3814 92.5748 29.3814C93.1879 29.3814 93.6996 29.2198 94.1097 28.8967C94.524 28.5694 94.8348 28.1302 95.0419 27.5792C95.2532 27.024 95.3588 26.4067 95.3588 25.7273C95.3588 25.0561 95.2553 24.4512 95.0481 23.9126C94.8451 23.3699 94.5365 22.9411 94.1222 22.6262C93.712 22.3072 93.1962 22.1477 92.5748 22.1477C91.9782 22.1477 91.4769 22.2989 91.0708 22.6014C90.6648 22.8997 90.3583 23.3181 90.1511 23.8567C89.944 24.3912 89.8404 25.0147 89.8404 25.7273ZM102.821 30.6989C101.901 30.6989 101.108 30.4959 100.441 30.0898C99.778 29.6797 99.2663 29.108 98.9059 28.3746C98.5496 27.6372 98.3714 26.7796 98.3714 25.8018C98.3714 24.8241 98.5496 23.9624 98.9059 23.2166C99.2663 22.4667 99.7676 21.8826 100.41 21.4641C101.056 21.0415 101.81 20.8303 102.672 20.8303C103.169 20.8303 103.66 20.9131 104.145 21.0788C104.629 21.2446 105.071 21.5138 105.468 21.8867C105.866 22.2554 106.183 22.7443 106.419 23.3533C106.655 23.9624 106.773 24.7122 106.773 25.603V26.2244H99.4155V24.9567H105.282C105.282 24.4181 105.174 23.9375 104.959 23.5149C104.748 23.0923 104.445 22.7588 104.051 22.5144C103.662 22.2699 103.202 22.1477 102.672 22.1477C102.088 22.1477 101.582 22.2927 101.156 22.5827C100.733 22.8686 100.408 23.2415 100.18 23.7013C99.952 24.1612 99.8381 24.6542 99.8381 25.1804V26.0256C99.8381 26.7464 99.9624 27.3575 100.211 27.8588C100.464 28.356 100.814 28.7351 101.261 28.9961C101.709 29.253 102.229 29.3814 102.821 29.3814C103.206 29.3814 103.554 29.3275 103.865 29.2198C104.18 29.108 104.451 28.9422 104.679 28.7227C104.907 28.4989 105.083 28.2214 105.207 27.8899L106.624 28.2876C106.475 28.7682 106.224 29.1908 105.872 29.5554C105.52 29.9158 105.085 30.1976 104.567 30.4006C104.049 30.5994 103.467 30.6989 102.821 30.6989Z" fill="black"/>
<rect x="0.5" y="0.5" width="117" height="39" rx="4.5" stroke="#A6A6A6"/>
</svg>

<svg xmlns="http://www.w3.org/2000/svg" width="118" height="40" fill="none" viewBox="0 0 118 40">
  <rect width="117" height="39" x=".5" y=".5" fill="#fff" rx="4.5"/>
  <rect width="117" height="39" x=".5" y=".5" stroke="#A6A6A6" rx="4.5"/>
  <path fill="#FF0100" d="M31.498 14.186a3.016 3.016 0 0 0-2.122-2.136c-1.871-.505-9.376-.505-9.376-.505s-7.505 0-9.377.505a3.018 3.018 0 0 0-2.121 2.136C8 16.07 8 20 8 20s0 3.93.502 5.814a3.016 3.016 0 0 0 2.122 2.136c1.871.505 9.376.505 9.376.505s7.505 0 9.377-.505a3.015 3.015 0 0 0 2.122-2.136C32 23.93 32 20 32 20s0-3.93-.502-5.814Z"/>
  <path fill="#fff" d="M17.545 23.568v-7.136L23.818 20l-6.273 3.568Z"/>
  <path fill="#000" d="m40.871 14.5-1.69-6.182h.76l1.293 5.035h.06l1.316-5.035h.845l1.316 5.035h.06l1.293-5.035h.76l-1.69 6.182h-.773l-1.364-4.926h-.049L41.645 14.5h-.773Zm7.782.109c-.294 0-.56-.056-.8-.166a1.371 1.371 0 0 1-.57-.486 1.37 1.37 0 0 1-.212-.773c0-.266.053-.481.157-.646.105-.167.245-.298.42-.392a2.21 2.21 0 0 1 .58-.212c.213-.048.427-.086.642-.114.282-.037.51-.064.686-.082.177-.02.305-.053.386-.1.082-.046.124-.126.124-.241v-.024c0-.298-.082-.53-.245-.694-.16-.165-.405-.248-.733-.248-.34 0-.607.075-.8.224a1.32 1.32 0 0 0-.408.476l-.676-.241c.12-.282.282-.501.483-.658a1.81 1.81 0 0 1 .664-.332c.242-.065.48-.097.713-.097.148 0 .32.018.513.055.195.034.383.105.564.214.183.109.335.273.456.492.12.22.181.513.181.881V14.5h-.712v-.628h-.037c-.048.1-.128.208-.241.323a1.393 1.393 0 0 1-.45.293 1.74 1.74 0 0 1-.685.12Zm.109-.64c.281 0 .519-.056.712-.166a1.13 1.13 0 0 0 .592-.981v-.652c-.03.036-.097.07-.2.1-.1.027-.217.053-.35.075a16.015 16.015 0 0 1-.682.09 2.72 2.72 0 0 0-.519.118.895.895 0 0 0-.386.238c-.097.105-.145.248-.145.43 0 .247.091.434.274.56.185.125.42.188.704.188Zm5.333-4.105v.603h-2.403v-.603h2.403Zm-1.703-1.111h.712v4.419c0 .201.03.352.088.453.06.098.137.165.23.199a.92.92 0 0 0 .298.048c.079 0 .143-.004.194-.012l.12-.024.145.64a1.49 1.49 0 0 1-.531.085c-.201 0-.399-.044-.592-.13a1.177 1.177 0 0 1-.477-.396c-.124-.177-.187-.4-.187-.67V8.753ZM57 14.597c-.435 0-.81-.103-1.123-.308a2.006 2.006 0 0 1-.724-.848 2.873 2.873 0 0 1-.254-1.235c0-.47.087-.886.26-1.247.175-.362.418-.645.73-.848.314-.205.68-.308 1.099-.308.326 0 .62.06.881.181.262.121.476.29.643.508.167.217.27.47.311.76h-.712a1.105 1.105 0 0 0-.363-.561c-.185-.165-.434-.248-.748-.248-.278 0-.521.073-.73.218a1.41 1.41 0 0 0-.487.606c-.114.26-.172.565-.172.915 0 .358.057.67.17.935.114.266.275.472.482.62.21.146.455.22.737.22.185 0 .353-.033.504-.097a1.04 1.04 0 0 0 .607-.712h.712a1.65 1.65 0 0 1-.924 1.258c-.257.127-.557.19-.9.19Zm3.577-2.886V14.5h-.713V8.318h.713v2.27h.06c.109-.24.272-.43.49-.57.218-.143.51-.215.874-.215.316 0 .593.064.83.19.238.125.422.317.553.577.133.258.2.585.2.984V14.5h-.713v-2.898c0-.368-.096-.653-.287-.854-.19-.203-.452-.305-.788-.305-.233 0-.443.05-.628.148a1.08 1.08 0 0 0-.434.432 1.397 1.397 0 0 0-.157.688Zm8.584 2.886c-.419 0-.786-.1-1.102-.3a2.03 2.03 0 0 1-.737-.835c-.175-.358-.262-.777-.262-1.256 0-.483.087-.905.262-1.265.177-.36.423-.64.737-.839.316-.2.683-.299 1.102-.299a2 2 0 0 1 1.098.3c.316.198.562.478.737.838.177.36.265.782.265 1.265 0 .479-.088.898-.265 1.256-.175.358-.42.636-.737.836-.314.199-.68.299-1.099.299Zm0-.64c.317 0 .58-.082.784-.245a1.44 1.44 0 0 0 .456-.643c.099-.265.148-.553.148-.863 0-.31-.05-.599-.148-.866a1.46 1.46 0 0 0-.456-.65c-.205-.164-.466-.247-.784-.247s-.58.083-.785.248a1.46 1.46 0 0 0-.456.649 2.487 2.487 0 0 0-.148.866c0 .31.05.598.148.863.099.266.25.48.456.643.205.163.467.245.784.245Zm3.9-2.246V14.5h-.712V9.864h.688v.724h.06a1.33 1.33 0 0 1 .495-.567c.222-.145.508-.218.858-.218.313 0 .588.065.824.193.235.127.418.32.549.58.13.258.196.584.196.978V14.5h-.712v-2.898c0-.364-.095-.648-.284-.85-.189-.206-.449-.309-.779-.309-.227 0-.43.05-.61.148a1.058 1.058 0 0 0-.419.432 1.419 1.419 0 0 0-.154.688Zm-34.614 6.062h1.765l3.53 5.94h.15l3.53-5.94h1.764l-4.599 7.482V30.5h-1.54v-5.245l-4.6-7.482Zm14.811 12.926c-.861 0-1.618-.205-2.268-.615-.646-.41-1.152-.984-1.516-1.722-.36-.737-.541-1.599-.541-2.585 0-.994.18-1.862.54-2.604.365-.741.87-1.317 1.517-1.727.65-.41 1.407-.616 2.268-.616.862 0 1.616.205 2.262.616.65.41 1.156.985 1.517 1.727.364.742.547 1.61.547 2.604 0 .986-.183 1.848-.547 2.585-.36.738-.866 1.312-1.517 1.722-.646.41-1.4.615-2.262.615Zm0-1.318c.655 0 1.193-.167 1.616-.503.423-.336.735-.777.938-1.324a5.063 5.063 0 0 0 .305-1.777 5.12 5.12 0 0 0-.305-1.784 3.006 3.006 0 0 0-.938-1.336c-.423-.34-.961-.51-1.616-.51-.654 0-1.193.17-1.616.51-.422.34-.735.785-.938 1.336a5.12 5.12 0 0 0-.304 1.784c0 .638.101 1.23.304 1.777.203.547.516.988.938 1.324.423.336.962.503 1.616.503Zm12.33-2.784v-5.643h1.467V30.5h-1.467v-1.616h-.1a3.13 3.13 0 0 1-1.043 1.237c-.473.335-1.07.503-1.79.503-.597 0-1.127-.13-1.591-.391-.464-.265-.829-.663-1.094-1.193-.265-.535-.398-1.208-.398-2.02v-6.066h1.467v5.966c0 .696.195 1.252.584 1.666.394.414.895.621 1.504.621.365 0 .735-.093 1.112-.28.382-.186.7-.472.957-.857.261-.385.392-.876.392-1.473Zm2.517-7.457v-1.367h9.545v1.367h-4.002V30.5h-1.54V19.14h-4.003Zm16.192 7.457v-5.643h1.466V30.5h-1.466v-1.616h-.1a3.13 3.13 0 0 1-1.044 1.237c-.472.335-1.068.503-1.79.503-.596 0-1.126-.13-1.59-.391-.464-.265-.829-.663-1.094-1.193-.265-.535-.398-1.208-.398-2.02v-6.066h1.467v5.966c0 .696.195 1.252.584 1.666.394.414.895.621 1.504.621.365 0 .735-.093 1.112-.28.382-.186.7-.472.957-.857.261-.385.392-.876.392-1.473Zm4.102 3.903V17.773h1.466v4.698h.125c.107-.166.256-.377.447-.634.195-.261.472-.493.833-.696.364-.207.857-.31 1.479-.31.803 0 1.512.2 2.125.602.613.402 1.092.972 1.436 1.709.343.738.516 1.608.516 2.61 0 1.011-.172 1.887-.516 2.629-.344.737-.82 1.309-1.43 1.715-.609.402-1.31.603-2.106.603-.614 0-1.105-.102-1.473-.305-.369-.207-.653-.44-.852-.702a9.38 9.38 0 0 1-.46-.659h-.174V30.5H88.4Zm1.441-4.773c0 .721.106 1.357.317 1.908.212.547.52.976.926 1.287.406.306.903.46 1.492.46.613 0 1.125-.162 1.535-.485.414-.328.725-.767.932-1.318a5.17 5.17 0 0 0 .317-1.852c0-.67-.104-1.276-.31-1.814-.204-.543-.513-.972-.927-1.287-.41-.319-.926-.478-1.547-.478-.597 0-1.098.15-1.504.453-.406.299-.713.717-.92 1.256-.207.534-.31 1.158-.31 1.87Zm12.981 4.972c-.92 0-1.713-.203-2.38-.61a4.086 4.086 0 0 1-1.535-1.714c-.356-.738-.535-1.595-.535-2.573s.179-1.84.535-2.585c.36-.75.862-1.334 1.504-1.753.646-.422 1.4-.634 2.262-.634.497 0 .988.083 1.473.249.484.166.926.435 1.323.808.398.368.715.857.951 1.466.236.61.354 1.36.354 2.25v.621h-7.358v-1.267h5.867c0-.539-.108-1.02-.323-1.442a2.431 2.431 0 0 0-.908-1c-.389-.245-.849-.367-1.379-.367-.584 0-1.09.145-1.516.435a2.86 2.86 0 0 0-.976 1.118c-.228.46-.342.953-.342 1.48v.845c0 .72.124 1.332.373 1.833.253.497.603.876 1.05 1.137.448.257.968.385 1.56.385.385 0 .733-.053 1.044-.161.315-.112.586-.278.814-.497a2.26 2.26 0 0 0 .528-.833l1.417.398c-.149.48-.4.903-.752 1.267a3.67 3.67 0 0 1-1.305.846c-.518.198-1.1.298-1.746.298Z"/>
</svg>
